X:532
T:The Wombat
M:2/4
L:1/8
K:C
AB|c2 Ac|B2 AG|A2 GF|ED AB|c2 Ac|
B2 AG|[1 F G2 ^F|G2:|[2 ^F G2 ^F| G2 |
P:B
AB|c2 c/c/c|c2 e2|d2 e/d/c|B2 G/A/B|
c2 c/c/c|c2 e2|d2 e/d/c|B2:|
